src/assets/img/view__grid.svg

<svg width="15" height="15" viewBox="0 0 15 15" fill="none" xmlns="http://www.w3.org/2000/svg">
<path fill-rule="evenodd" clip-rule="evenodd" d="M0 0H2.64706V2.64706H0V0ZM0 6.17647H2.64706V8.82353H0V6.17647ZM0 12.3529H2.64706V15H0V12.3529ZM6.17647 0H8.82353V2.64706H6.17647V0ZM6.17647 6.17647H8.82353V8.82353H6.17647V6.17647ZM6.17647 12.3529H8.82353V15H6.17647V12.3529ZM12.3529 0H15V2.64706H12.3529V0ZM12.3529 6.17647H15V8.82353H12.3529V6.17647ZM12.3529 12.3529H15V15H12.3529V12.3529Z" fill="#202020"/>
</svg>

<svg xmlns="http://www.w3.org/2000/svg" fill="none" viewBox="0 0 15 15"><path fill="#202020" fill-rule="evenodd" d="M0 0h2.647v2.647H0V0zm0 6.176h2.647v2.648H0V6.176zm0 6.177h2.647V15H0v-2.647zM6.176 0h2.648v2.647H6.176V0zm0 6.176h2.648v2.648H6.176V6.176zm0 6.177h2.648V15H6.176v-2.647zM12.353 0H15v2.647h-2.647V0zm0 6.176H15v2.648h-2.647V6.176zm0 6.177H15V15h-2.647v-2.647z" clip-rule="evenodd"/></svg>
